!!!OTL: Triste es el quererte
**kern
*I"Guitarra acústica
*I'Guit. ac.
!!pagebreak:original
*clefG2
*Trd0c0
*k[f#]
*G:
*M6/8
=1
!LO:TX:t=[quarter]=120
8.bL
16bbL
16aa
16ggJJ
16ff#LL
16eeJ
8b
8ggJ
=2
4.ff#
4.r
=3
8.bL
16aaL
16gg
16ff#JJ
16eeLL
16dd#XJ
8b
8ccJ
=4
4.b
4.r
=5
16eeeLL
16ddd#XJ
8eee
8cccJ
8aaL
8ccc
8eeeJ
=6
16bbLL
16aa#XJ
8bb
8ggJ
8eeL
8gg
8bbJ
!!linebreak:original
=7
16cccLL
16bb
16aa
16gg
16ff#
16eeJJ
16dd#XLL
16cc
16b
16a
16f#
16aJJ
=8
16ccLL
(16bJJ
2b)
8r
=9
16eeeLL
16ddd#XJ
8eee
8cccJ
8aaL
8ccc
8eeeJ
=10
16bbLL
16aa#XJ
8bb
8ggJ
8eeL
8gg
8bbJ
!!linebreak:original
=11
16cccLL
16bb
16aa
16gg
16ff#
16eeJJ
16dd#XLL
16cc
16b
16a
16g
16f#JJ
=12
4.e
8r
4d#X
=13
4.e
8r
4d#X
=14
(4.e
4e)
8b
=15
16bLL
16bJ
8b
8gJ
8a
4g
=16
(4.e
4e)
8ee
!!linebreak:original
=17
8eeL
8ee
8eeJ
8ggL
8ff#
8eeJ
=18
8ee
(4b
4b)
8r
=19
8.aL
16ak
8aJ
8eeL
8dd
(8eeJ
=20
8ee)
(4b
4b)
8dd
=21
8cc#XL
8b
8aJ
8gL
8g
(8aJ
=22
8a)
(4g
4g)
8r
!!linebreak:original
=23
8.aL
16ak
8aJ
8eeL
8dd
(8eeJ
=24
8ee)
(4b
4b)
8dd
=25
8cc#XL
8b
8aJ
8gL
8g
(8aJ
=26
8a)
(4g
4g)
(8b
=27
16bLL)
16bJ
8b
8gJ
8a
4g
=28
(4.e
4e)
8ee
=29
8eeL
8ee
8eeJ
8ggL
8ff#
8eeJ
!!linebreak:original
=30
8ee
(4b
4b)
8r
=31
8.aL
16ak
8aJ
8eeL
8dd
(8eeJ
=32
8ee)
(4b
4b)
8dd
=33
8cc#XL
8b
8aJ
8gL
8g
(8aJ
=34
8a)
(4g
4g)
8r
=35
8.aL
16ak
8aJ
8eeL
8dd
(8eeJ
=36
8ee)
(4b
4b)
8dd
!!linebreak:original
=37
8cc#XL
8b
8aJ
8gL
8g
(8aJ
=38
8a)
(4g
4g)
8r
=39
8ggL
8ff#
(8eeJ
4ee)
8r
=40
4gg
8ee
(8ee
4ee)
=41
8.eeL
16eek
8eeJ
8ddL
8dd
(8eeJ
=42
8ee)
(4b
4b)
8r
=43
8aL
8a
8aJ
8eeL
8dd
(8eeJ
!!linebreak:original
=44
8ee)
(4b
4b)
8dd
=45
8cc#XL
8b
8aJ
8gL
8g
(8aJ
=46
8a)
(4g
4g)
8r
=47
8aL
8a
8aJ
8eeL
8dd
(8eeJ
=48
8ee)
(4b
4b)
8dd
=49
8cc#XL
8b
8aJ
8gL
8g
8aJ
=50
8a
(4g
4g)
(8bb
!!pagebreak:original
=51
16bbLL)
16bbJ
8bb
8ggJ
8aa
4gg
=52
(4.ee
4ee)
8eee
=53
8eeeL
8eee
8eeeJ
8gggL
8fff#
8eeeJ
=54
8eee
(4bb
4bb)
8r
=55
8.aaL
16aak
8aaJ
8eeeL
8ddd
(8eeeJ
=56
8eee)
(4bb
4bb)
8ddd
!!linebreak:original
=57
8ccc#XL
8bb
8aaJ
8ggL
8gg
(8aaJ
=58
8aa)
(4gg
4gg)
8r
=59
8.aL
16ak
8aJ
8eeL
8dd
(8eeJ
=60
8ee)
(4b
4b)
8dd
=61
8cc#XL
8b
8aJ
8gL
8g
(8aJ
=62
8a)
(4g
4g)
8r
==
*-